X:1
T:Sean Dun Na Ngall
T:Sean Dun Na Ngall
T:Old Dongal
%%score 1 2
L:1/8
M:3/4
K:D
V:1 treble nm="Violin" snm="Vln."
V:2 tab stafflines=4 strings=G3,D4,A4,E5 nm="Banjo" snm="Bj."
V:1
 A2 |"D" F2 D7/2 D/ |"D" d2 A3 F/A/ |"A7" GE- E7/2 C/ |"D" D2- D z DE |"D" F2 G2 A2 | %6
"D" d2 f7/2 e/ |"Bm" d2 A3 ^G |"A7" A6 |"G" FF G7/2 A/ |"Bm" df- f7/2 e/ |"D" d4 AF | %12
"G" G2- G z AB |"C" =cc B7/2 A/ |"Bm" B2 A7/2 G/ |"D" F2 D7/2 D/ |"D" D6 |] %17
V:2
 !2!A2 | !3!F2 !3!D7/2 !3!D/ | !2!d2 !2!A3 !3!F/!2!A/ | !3!G!3!E- !3!E7/2 !4!C/ | %4
w: Is|gra geal mo|chroi thu a *|thir chon all a|
 !3!D2- !3!D x !3!D!3!E | !3!F2 !3!G2 !2!A2 | !2!d2 !1!f7/2 !1!e/ | !2!d2 !2!A3 !3!^G | !2!A6 | %9
w: stor * I do|lui mar bheadh|seoid ghlas san|fhar rai ge|Mhor|
 !3!F!3!F !3!G7/2 !2!A/ | !2!d!1!f- !1!f7/2 !1!e/ | !2!d4 !2!A!3!F | !3!G2- !3!G x !2!A!2!B | %13
w: Oh gram thu I|gcon nai * go|mach is go|Mall * A gus|
 !2!=c!2!c !2!B7/2 !2!A/ | !2!B2 !2!A7/2 !3!G/ | !3!F2 !3!D7/2 !3!D/ | !3!D6 |] %17
w: Mol * faidh me|choiche thu a|shean dun na|ngall|

